dist/svg/folder-open-o.svg

<!-- Generated by Trend Micro Style Portal -->
<svg version="1.1" xmlns="http://www.w3.org/2000/svg" width="16" height="16" viewBox="0 0 16 16">
  <title>folder-open-o</title>
  <path fill="rgb(34,34,34)" d="M16 7h-2v-3c0-0.552-0.448-1-1-1v0h-7l-1-2h-4c-0.552 0-1 0.448-1 1v0 12c0 0.552 0.448 1 1 1v0h11.6c0.397-0.003 0.739-0.237 0.897-0.574l0.003-0.006zM1 14v-12h3.37l1 2h7.63v3h-9.75l-2.25 7zM14.58 8l-2 6h-10.48l1.9-6h10.58z"></path>
</svg>

<svg width="16" height="16" viewBox="0 0 16 16" fill="rgb(34, 34, 34)" xmlns="http://www.w3.org/2000/svg"><title>folder-open-o</title><path d="M16 7H14V4C14 3.448 13.552 3 13 3H6L5 1H1C0.448 1 0 1.448 0 2V14C0 14.552 0.448 15 1 15H12.6C12.997 14.997 13.339 14.763 13.497 14.426L13.5 14.42L16 7ZM1 14V2H4.37L5.37 4H13V7H3.25L1 14ZM14.58 8L12.58 14H2.1L4 8H14.58Z" fill="rgb(34, 34, 34)" fill-opacity="1.00"/></svg>
